src/assets/muted-mic.svg

<svg fill="none" height="18" viewBox="0 0 16 18" width="16" xmlns="http://www.w3.org/2000/svg"><path clip-rule="evenodd" d="m7.88571 1.16748c-1.5221 0-2.75601 1.2339-2.75601 2.756v4.40961c0 1.5221 1.23391 2.75601 2.75601 2.75601s2.75599-1.2339 2.75599-2.756v-4.40961c0-1.5221-1.23389-2.75601-2.75599-2.75601zm-4.21091 7.71676c0-.41421-.33578-.75-.75-.75-.41421 0-.75.33579-.75.75 0 .80132.29282 2.07336 1.15434 3.16056.78462.9902 2.01226 1.7891 3.80706 1.9636v1.8426h-2.55735c-.41421 0-.75.3358-.75.75s.33579.75.75.75h6.61445c.4142 0 .75-.3358.75-.75s-.3358-.75-.75-.75h-2.5571v-1.8427c1.7942-.1747 3.0214-.9735 3.8059-1.9635.8615-1.0872 1.1543-2.35924 1.1543-3.16056 0-.41421-.3358-.75-.75-.75s-.75.33579-.75.75c0 .50523-.2032 1.43806-.83 2.22896-.5988.7558-1.62068 1.4307-3.38079 1.4307-1.7601 0-2.78194-.6749-3.38082-1.4307-.62672-.7909-.82999-1.72373-.82999-2.22896z" fill="#abb2bd" fill-rule="evenodd"/><path d="m15 1-14 16" stroke="#abb2bd" stroke-linecap="round" stroke-width="1.5"/></svg>

<svg width="16" height="18" viewBox="0 0 16 18" fill="none" xmlns="http://www.w3.org/2000/svg">
  <path fill-rule="evenodd" clip-rule="evenodd" d="M7.88571 1.16748C6.36361 1.16748 5.1297 2.40138 5.1297 3.92348V8.33309C5.1297 9.85519 6.36361 11.0891 7.88571 11.0891C9.40781 11.0891 10.6417 9.8552 10.6417 8.3331V3.92349C10.6417 2.40139 9.40781 1.16748 7.88571 1.16748ZM3.6748 8.88424C3.6748 8.47003 3.33902 8.13424 2.9248 8.13424C2.51059 8.13424 2.1748 8.47003 2.1748 8.88424C2.1748 9.68556 2.46762 10.9576 3.32914 12.0448C4.11376 13.035 5.3414 13.8339 7.1362 14.0084V15.851H4.57885C4.16464 15.851 3.82885 16.1868 3.82885 16.601C3.82885 17.0152 4.16464 17.351 4.57885 17.351H11.1933C11.6075 17.351 11.9433 17.0152 11.9433 16.601C11.9433 16.1868 11.6075 15.851 11.1933 15.851H8.6362V14.0083C10.4304 13.8336 11.6576 13.0348 12.4421 12.0448C13.3036 10.9576 13.5964 9.68556 13.5964 8.88424C13.5964 8.47003 13.2606 8.13424 12.8464 8.13424C12.4322 8.13424 12.0964 8.47003 12.0964 8.88424C12.0964 9.38947 11.8932 10.3223 11.2664 11.1132C10.6676 11.869 9.64572 12.5439 7.88561 12.5439C6.12551 12.5439 5.10367 11.869 4.50479 11.1132C3.87807 10.3223 3.6748 9.38947 3.6748 8.88424Z" fill="#ABB2BD"/>
  <path d="M15 1L1 17" stroke="#ABB2BD" stroke-width="1.5" stroke-linecap="round"/>
</svg>
